X:400
T:Nightingale, The
R:jig
C:Sean Ryan (-1985)
Z:id:hn-jig-400
M:6/8
L:1/8
K:Ador
|: EAA A2B | cAd cAG | EDE ~G3 | G,B,D GFG |
EAA A2B | cAB cde | ~g3 e/f/ge |1 dBG A2G :|2 dBG A2a ||
aea aef | gdg gdg | aea aef | gfe deg |
aea aef | gdg gdg | gfg e/f/ge | dBG A2a |
aea aef | gdg gdg | aea aef | gfe def |
g2e fed | edB GBd | ~g3 ege | dBG A2G ||


This file contains 100 jigs (#101 - #200).
You can find more abc tune files at http://www.norbeck.nu/abc/
I've transcribed them as I have learnt them, which does not necessarily mean
that I play them that way nowadays. Many of the tunes include variations and
different versions. If there is a source (S:) or discography (D:) included the
version transcribed might still not be exactly as that source played the tune,
since I might have changed the tune around a bit when I learnt it.
The tunes were learnt from sessions, from friends or from recordings.
When I've included discography, it's often just a reference to what recordings
the tune appears on.

Last updated 14 December 2018.

(c) Copyright 1997-2018 Henrik Norbeck. This file:
- May be distributed with restrictions below.
- May not be used for commercial purposes (such as printing a tune book to sell).
- This file (or parts of it) may not be made available on a web page for
  download without permission from me.
- This copyright notice must be kept, except when e-mailing individual tunes.
- May be printed on paper for personal use.
- Questions? E-mail: henrik@norbeck.nu

